Flat-Remix-Dark/apps/scalable/words.svg

<svg xmlns="http://www.w3.org/2000/svg" xmlns:xlink="http://www.w3.org/1999/xlink" width="384pt" height="384pt" version="1.1" viewBox="0 0 384 384"> <defs> <filter id="alpha" width="100%" height="100%" x="0%" y="0%" filterUnits="objectBoundingBox"> <feColorMatrix in="SourceGraphic" type="matrix" values="0 0 0 0 1 0 0 0 0 1 0 0 0 0 1 0 0 0 1 0"/> </filter> <mask id="mask0"> <g filter="url(#alpha)"> <rect width="384" height="384" x="0" y="0" style="fill:rgb(0%,0%,0%);fill-opacity:0.101961"/> </g> </mask> <clipPath id="clip1"> <rect width="384" height="384" x="0" y="0"/> </clipPath> <g id="surface5" clip-path="url(#clip1)"> <path style="fill:rgb(100.000%,100.000%,100.000%)" d="M 78 24 C 68.027344 24 60 32.027344 60 42 L 60 48 C 60 38.027344 68.027344 30 78 30 L 306 30 C 315.972656 30 324 38.027344 324 48 L 324 42 C 324 32.027344 315.972656 24 306 24 Z M 78 24"/> </g> <mask id="mask1"> <g filter="url(#alpha)"> <rect width="384" height="384" x="0" y="0" style="fill:rgb(0%,0%,0%);fill-opacity:0.2"/> </g> </mask> <clipPath id="clip2"> <rect width="384" height="384" x="0" y="0"/> </clipPath> <g id="surface8" clip-path="url(#clip2)"> <path style="fill:rgb(0%,0%,0%)" d="M 60 342 L 60 348 C 60 357.972656 68.027344 366 78 366 L 306 366 C 315.972656 366 324 357.972656 324 348 L 324 342 C 324 351.972656 315.972656 360 306 360 L 78 360 C 68.027344 360 60 351.972656 60 342 Z M 60 342"/> </g> </defs> <g> <path style="fill:rgb(4.705%,63.137%,36.862%)" d="M 324 342 L 324 42 C 324 32.027344 315.972656 24 306 24 L 78 24 C 68.027344 24 60 32.027344 60 42 L 60 342 C 60 351.972656 68.027344 360 78 360 L 306 360 C 315.972656 360 324 351.972656 324 342 Z M 324 342"/> <use mask="url(#mask0)" xlink:href="#surface5"/> <path style="fill:rgb(29.803%,29.803%,29.803%)" d="M 108 96 L 276 96 L 276 108 L 108 108 Z M 108 96"/> <path style="fill:rgb(29.803%,29.803%,29.803%)" d="M 108 132 L 276 132 L 276 144 L 108 144 Z M 108 132"/> <path style="fill:rgb(29.803%,29.803%,29.803%)" d="M 108 168 L 276 168 L 276 180 L 108 180 Z M 108 168"/> <path style="fill:rgb(29.803%,29.803%,29.803%)" d="M 108 204 L 276 204 L 276 216 L 108 216 Z M 108 204"/> <path style="fill:rgb(29.803%,29.803%,29.803%)" d="M 108 240 L 276 240 L 276 252 L 108 252 Z M 108 240"/> <path style="fill:rgb(29.803%,29.803%,29.803%)" d="M 108 276 L 276 276 L 276 288 L 108 288 Z M 108 276"/> <use mask="url(#mask1)" xlink:href="#surface8"/> </g> </svg>

<svg width="512" height="512" version="1.1" viewBox="0 0 384 384" xmlns="http://www.w3.org/2000/svg"><path d="m324 342v-300c0-9.9727-8.0273-18-18-18h-228c-9.9727 0-18 8.0273-18 18v300c0 9.9727 8.0273 18 18 18h228c9.9727 0 18-8.0273 18-18z" fill="#0ba05d"/><g><path d="m108 96h168v12h-168z" opacity=".5"/><path d="m108 132h168v12h-168z" opacity=".5"/><path d="m108 168h168v12h-168z" opacity=".5"/><path d="m108 204h168v12h-168z" opacity=".5"/><path d="m108 240h168v12h-168z" opacity=".5"/><path d="m108 276h168v12h-168z" opacity=".5"/></g><path transform="scale(.75)" d="m80 446v10c0 13.297 10.703 24 24 24h304c13.297 0 24-10.703 24-24v-10c0 13.297-10.703 24-24 24h-304c-13.297 0-24-10.703-24-24z" fill="#021c10" opacity=".3" stroke-width="1.3333"/><path transform="scale(.75)" d="m104 32c-13.297 0-24 10.703-24 24v10c0-13.297 10.703-24 24-24h304c13.297 0 24 10.703 24 24v-10c0-13.297-10.703-24-24-24h-304z" fill="#fff" opacity=".3" stroke-width="1.3333"/></svg>
